X: 10522
T: Doon, The
R: reel
M: 4/4
K: Dmajor
|:D2FA BFAF|DFAF E2~E2|D2FA BAFA|(3Bcd ed dBAF|
D2FA B2AF|DFAF EA,CE|D2FA BAFA|1 (3Bcd ec d2d2:|2 (3Bcd ec dBAB||
|:d2fd Adfe|d2fd BdAB|d2fd Adfa|afed ~B2AB|
d2fd Adfd|d2fd e3f|g3e dBAB|1 f3e dBAB:|2 (3Bcd ed dBAF||

